X: 1
T: For Oliver
M: 6/8
L: 1/8
R: jig
K: Gmaj
|:BGG AGG|EGG DGG|BGG AGG|BAG A3|
BGG AGG|EGG DGG|BGG AGA|BGF G3:|
|:Bdd edd|Bdd BAG|Bdd edd|BAG A3|
Bdd edd|Bdd BAG|BGG AGA|BGF G3:|
